X: 294
T: Tong yangxi
L: 1/8
M: 2/4
K: A
B2B2 [I:setbarnb 1]| 
B2e2 | 
d2c e | 
B4 | 
c2c2 | 
B2c B | 
A2G F | 
E2z2 | 
B3A | 
B3c | 
e A G F | 
E3B | 
A2G F | 
E F E B, | 
E2z2 |]

@@@ Tune index: 9168
